X: 6937
T: Cherry Wine
R: reel
M: 4/4
K: Amajor
afec B z ec|BAF z cBAF|E z CE FABA|Bcec efef|
afec B z ec|BAF z cBAF|E z CE FABc|BA F2 A4:|
|:EAcA BAEA|FAcA BAFA|=GAdc BAGA|FAdc BAFA|
EAcA BAEA|FAcA BAFA|=GAdc BAGA|FAEA FADA:|

